packages/core/src/svgs/tokens/mono/RDT.svg

<svg width="24" height="24" viewBox="0 0 24 24" fill="none" xmlns="http://www.w3.org/2000/svg">
<path d="M12.0235 3.17651L7.77058 7.44121L12.0235 11.7001L16.2765 7.44121L12.0235 3.17651ZM6.25294 9.28239L2 13.5471L6.25294 17.8059L10.5059 13.5471L6.25294 9.28239ZM13.494 13.5471L17.747 9.28239L22 13.5471L17.747 17.8059L13.494 13.5471ZM6.68822 20.8235L12.0765 15.4235L17.4588 20.8235H6.68822Z" fill="white"/>
</svg>

<svg xmlns="http://www.w3.org/2000/svg" width="24" height="24" fill="none" viewBox="0 0 24 24">
    <path fill="#fff" d="M12.024 3.177 7.77 7.44l4.253 4.26 4.252-4.26zM6.253 9.282 2 13.547l4.253 4.259 4.253-4.259zm7.241 4.265 4.253-4.265L22 13.547l-4.253 4.259zm-6.806 7.276 5.389-5.4 5.382 5.4z"/>
</svg>
